src/assets/images/icons/github.svg

<svg width="66" height="49" viewBox="0 0 66 49" fill="none" xmlns="http://www.w3.org/2000/svg">
<g clip-path="url(#clip0_740_626)">
<path d="M43.535 12.5C43.5368 13.872 43.2666 15.2308 42.7402 16.4978C42.2137 17.7649 41.4414 18.915 40.4678 19.8818C39.5022 20.8457 38.3561 21.6098 37.0951 22.1306C35.834 22.6513 34.4827 22.9184 33.1183 22.9167C27.3652 22.9167 22.7017 18.2531 22.7017 12.5C22.698 9.82905 23.724 7.25946 25.5663 5.32552C26.5383 4.29979 27.7094 3.4832 29.008 2.92572C30.3065 2.36824 31.7052 2.0816 33.1183 2.08334C34.4827 2.08157 35.834 2.34869 37.0951 2.86944C38.3561 3.39018 39.5022 4.15434 40.4678 5.11823C41.4414 6.08502 42.2137 7.23515 42.7402 8.50216C43.2666 9.76918 43.5368 11.128 43.535 12.5Z" stroke="white" stroke-width="3" stroke-linecap="round" stroke-linejoin="round"/>
<path d="M43.5351 12.5C42.0153 12.5 37.8226 11.9271 34.07 13.5745C29.9934 15.3646 27.0418 18.1417 25.7554 19.8682" stroke="white" stroke-width="3" stroke-linecap="round" stroke-linejoin="round"/>
<path d="M29.2119 2.84062C30.8421 4.34531 34.3994 8.17604 35.7223 11.9792C37.0452 15.7823 37.5348 20.4583 37.8369 21.7891" stroke="white" stroke-width="3" stroke-linecap="round" stroke-linejoin="round"/>
<path d="M22.7817 11.1979C24.7494 11.3167 29.9583 11.4234 33.2916 10C36.625 8.57657 39.4932 5.95834 40.4771 5.12761M23.4828 16.4651C24.4007 18.6869 26.0561 20.5246 28.1703 21.6688" stroke="white" stroke-width="3" stroke-linecap="round" stroke-linejoin="round"/>
<path d="M22.7017 12.5C22.698 9.82905 23.724 7.25946 25.5663 5.32552C26.5383 4.29979 27.7094 3.4832 29.008 2.92572C30.3065 2.36824 31.7052 2.0816 33.1183 2.08334M37.285 2.95C38.4713 3.46903 39.5506 4.20429 40.4678 5.11823C41.4414 6.08502 42.2137 7.23515 42.7402 8.50216C43.2666 9.76918 43.5368 11.128 43.535 12.5C43.535 13.7823 43.3032 15.0109 42.8788 16.1458M33.1183 22.9167C34.4827 22.9184 35.834 22.6513 37.0951 22.1306C38.3561 21.6098 39.5022 20.8457 40.4678 19.8818" stroke="white" stroke-width="3" stroke-linecap="round" stroke-linejoin="round"/>
</g>
<g clip-path="url(#clip1_740_626)">
<path d="M65.1152 44.08C64.9121 43.9328 64.7512 43.912 64.6182 44.192C62.3368 49.1256 58.4947 46.6624 58.8796 46.8792C59.7334 46.4872 61.9729 44.6957 61.6369 42.2114C61.434 40.6928 60.1323 40.021 58.7467 40.2658C56.3323 40.6858 55.4505 43.2891 55.8984 45.5915C55.9753 45.9904 56.1153 46.3123 56.2624 46.6343C53.54 48.8527 52.4553 44.6538 52.3292 44.1499C52.3224 44.1219 54.4358 42.3653 55.0236 38.1735C55.6395 33.7855 54.2398 32.9807 52.8052 33.0087C50.1529 33.0576 49.439 38.5933 50.3977 43.2051C50.3208 43.2261 49.9428 43.436 49.3411 43.4571C48.9072 42.0923 47.0526 40.8957 46.5697 41.3576C45.359 42.5123 46.8636 44.7656 47.9275 44.9407C47.2905 48.8667 43.3016 47.8939 44.0433 42.9743C45.338 40.5667 46.3318 36.9767 46.1499 34.8143C46.0868 34.0512 45.52 33.0227 44.2393 33.0717C41.776 33.1696 41.51 38.7053 41.7969 42.6383C41.783 42.5403 41.643 43.1141 40.6352 43.4011C40.3972 42.0784 38.2628 40.7418 37.759 41.3856C36.8212 42.5824 38.4518 44.7168 39.2216 44.8637C38.5848 48.7898 34.5958 47.817 35.3376 42.8973C36.6393 40.4898 37.626 36.9067 37.451 34.7443C37.3881 33.9815 36.8212 32.9527 35.5404 33.0018C33.0771 33.0997 32.8112 38.6354 33.0982 42.5682C33.0841 42.4703 32.9441 43.0651 31.8944 43.3451C31.8595 41.6235 29.718 40.8397 29.2001 41.3856C28.2833 42.3653 29.41 44.3738 30.4528 44.8637C29.816 48.7898 25.827 47.817 26.5688 42.8973C27.8635 40.4898 28.8572 36.8997 28.6753 34.7373C28.6193 33.9815 28.0524 32.9527 26.7716 33.0018C24.3083 33.0997 24.1124 38.9152 24.3993 42.8482C23.5875 46.3264 20.8652 50.6653 21.222 41.9666C21.2571 41.3576 21.2921 41.1266 20.9912 40.8957C20.7603 40.7208 20.2424 40.8047 19.9624 40.8117C19.6195 40.8258 19.5286 41.0287 19.4585 41.3296C19.2836 42.1135 19.2486 42.8762 19.2206 43.9189C19.2067 44.4088 19.1646 44.6328 18.9756 45.2976C18.7867 45.9624 17.723 47.1731 17.1352 46.9703C16.3233 46.6903 16.5892 44.4018 16.7432 42.8272C16.8692 41.5816 16.4633 41.0288 15.4276 40.8256C14.8187 40.6999 14.4478 40.7208 13.818 40.5178C13.2161 40.329 13.0832 39.1952 11.8096 39.5731C11.1097 39.7831 11.5576 41.2595 11.3896 42.3584C10.5638 47.7539 8.84924 47.9008 8.05148 45.2835C11.6345 36.4938 9.08028 33.0296 7.58956 33.0296C6.03596 33.0296 4.25836 34.1005 5.00716 40.9587C4.64332 40.8538 4.53132 40.7978 4.1254 40.7978C1.86492 40.7907 0.318359 42.6243 0.318359 44.8847C0.318359 47.1451 1.86492 48.9787 4.13244 48.9787C5.46908 48.9787 6.40684 48.3698 7.1206 47.432C7.58252 48.097 8.1494 48.9927 9.18508 48.9507C12.2643 48.8317 13.1601 42.5123 13.2651 42.1555C13.594 42.2043 13.9089 42.3024 14.2099 42.3514C14.7139 42.4283 14.7558 42.6314 14.7417 43.1352C14.6089 47.432 15.3996 48.9368 17.1982 48.9368C18.1988 48.9368 19.0947 47.9499 19.7105 47.2501C20.1724 48.2019 20.9001 48.9087 21.887 48.9367C24.2664 48.9927 25.1832 45.1997 25.0992 45.6967C25.0361 46.0883 25.8689 48.9087 28.3254 48.9227C31.3625 48.9367 31.9294 45.5986 31.9924 45.0387C31.9995 44.9267 32.0064 44.9407 31.9924 45.0387V45.0736C32.9582 44.8917 33.455 44.3808 33.455 44.3808C33.455 44.3808 34.2318 48.9787 37.0942 48.9296C40.0684 48.8736 40.6352 45.8576 40.7052 45.2696C40.7123 45.1296 40.7192 45.1437 40.7052 45.2696V45.2835C41.8529 44.8637 42.1539 44.4509 42.1539 44.4509C42.1539 44.4509 42.7697 48.9578 45.7929 48.9997C48.4873 49.0347 49.488 46.2704 49.495 45.1157C49.9499 45.1226 50.7897 44.8427 50.7688 44.8288C50.7688 44.8288 51.7555 48.7688 54.5128 48.9717C55.8075 49.0696 56.7801 48.2439 57.3331 47.8661C58.6347 48.9227 62.9667 50.2664 65.703 45.6266C66.0948 44.9687 65.262 44.1781 65.1152 44.08ZM4.02044 47.4459C2.69772 47.4459 1.85084 46.2213 1.85084 44.9056C1.85084 43.5899 2.6278 42.3651 3.95052 42.3651C4.54524 42.3651 4.8742 42.4282 5.34316 42.8339C5.427 43.1631 5.66508 43.9258 5.78396 44.2757C5.93788 44.7376 6.12684 45.1365 6.30876 45.5634C6.03596 46.669 5.16812 47.4459 4.02044 47.4459ZM7.23964 42.8691C7.18364 42.7781 7.19756 42.8339 7.13468 42.7501C6.89676 42.0923 6.4278 40.6226 6.3718 38.9501C6.30892 37.0605 6.6238 34.8421 7.55452 34.8421C8.18444 34.8421 8.85628 39.3349 7.23964 42.8691ZM25.8619 40.9026C25.715 39.7829 25.708 34.7791 26.9048 34.9191C27.5696 35.185 26.4848 39.9018 25.8619 40.9026ZM34.6307 40.9026C34.4838 39.7829 34.4768 34.7791 35.6736 34.9191C36.3384 35.185 35.2536 39.9018 34.6307 40.9026ZM43.3296 40.9725C43.1825 39.8528 43.1756 34.8491 44.3723 34.989C45.0371 35.248 43.9524 39.9719 43.3296 40.9725ZM52.9312 34.6181C54.0299 34.5061 53.9809 39.3 51.7835 42.3232C51.4964 41.2315 51.0627 34.996 52.9312 34.6181ZM57.55 44.9405C57.2001 43.156 58.1099 41.9872 59.0476 41.8613C59.3766 41.8123 59.8524 42.0223 59.9433 42.4213C60.0974 43.1701 59.9224 44.2827 57.816 45.6893C57.823 45.6963 57.627 45.3325 57.55 44.9405ZM20.3264 39.44C21.0752 39.44 21.684 38.8312 21.684 38.0824C21.684 37.3336 21.0752 36.7248 20.3264 36.7248C19.5776 36.7248 18.9686 37.3336 18.9686 38.0824C18.9686 38.8312 19.5776 39.44 20.3264 39.44Z" fill="white"/>
</g>
<defs>
<clipPath id="clip0_740_626">
<rect width="25" height="25" fill="white" transform="translate(20.6182)"/>
</clipPath>
<clipPath id="clip1_740_626">
<rect width="65.6" height="16" fill="white" transform="translate(0.318359 33)"/>
</clipPath>
</defs>
</svg>

<svg xmlns="http://www.w3.org/2000/svg" width="66" height="49" fill="none" xmlns:v="https://vecta.io/nano"><g clip-path="url(#A)" stroke="#fff" stroke-width="3" stroke-linejoin="round"><path d="M43.535 12.5c.002 1.372-.268 2.731-.795 3.998s-1.299 2.417-2.272 3.384c-.966.964-2.112 1.728-3.373 2.249s-2.612.788-3.977.786A10.42 10.42 0 0 1 22.702 12.5a10.38 10.38 0 0 1 2.865-7.174c.972-1.026 2.143-1.842 3.442-2.4s2.697-.844 4.11-.842c1.364-.002 2.716.265 3.977.786s2.407 1.285 3.373 2.249c.974.967 1.746 2.117 2.272 3.384s.797 2.626.795 3.998z"/><g stroke-linecap="round"><path d="M43.535 12.5c-1.52 0-5.712-.573-9.465 1.075-4.077 1.79-7.028 4.567-8.315 6.294"/><path d="M29.212 2.841c1.63 1.505 5.188 5.335 6.51 9.139s1.813 8.479 2.115 9.81"/><path d="M22.782 11.198c1.968.119 7.177.226 10.51-1.198s6.202-4.042 7.185-4.872M23.483 16.465c.918 2.222 2.573 4.06 4.688 5.204"/><path d="M22.702 12.5a10.38 10.38 0 0 1 2.865-7.174c.972-1.026 2.143-1.842 3.442-2.4s2.697-.844 4.11-.842m4.167.867c1.186.519 2.266 1.254 3.183 2.168.974.967 1.746 2.117 2.272 3.384s.797 2.626.795 3.998a10.39 10.39 0 0 1-.656 3.646m-9.76 6.771c1.364.002 2.716-.265 3.977-.786s2.407-1.285 3.373-2.249"/></g></g><g clip-path="url(#B)"><path d="M65.115 44.08c-.203-.147-.364-.168-.497.112-2.281 4.934-6.123 2.47-5.739 2.687.854-.392 3.093-2.183 2.757-4.668-.203-1.519-1.505-2.19-2.89-1.946-2.414.42-3.296 3.023-2.848 5.326.077.399.217.721.364 1.043-2.722 2.218-3.807-1.981-3.933-2.484-.007-.028 2.107-1.785 2.694-5.976.616-4.388-.784-5.193-2.218-5.165-2.652.049-3.366 5.585-2.407 10.196-.077.021-.455.231-1.057.252-.434-1.365-2.288-2.561-2.771-2.099-1.211 1.155.294 3.408 1.358 3.583-.637 3.926-4.626 2.953-3.884-1.966 1.295-2.408 2.288-5.998 2.107-8.16-.063-.763-.63-1.792-1.911-1.743-2.463.098-2.729 5.634-2.442 9.567-.014-.098-.154.476-1.162.763-.238-1.323-2.372-2.659-2.876-2.016-.938 1.197.693 3.331 1.463 3.478-.637 3.926-4.626 2.953-3.884-1.966 1.302-2.407 2.288-5.991 2.113-8.153-.063-.763-.63-1.792-1.911-1.742-2.463.098-2.729 5.634-2.442 9.566-.014-.098-.154.497-1.204.777-.035-1.722-2.176-2.505-2.694-1.96-.917.98.21 2.988 1.253 3.478-.637 3.926-4.626 2.953-3.884-1.966 1.295-2.407 2.288-5.998 2.107-8.16-.056-.756-.623-1.785-1.904-1.735-2.463.098-2.659 5.913-2.372 9.846-.812 3.478-3.534 7.817-3.177-.882.035-.609.07-.84-.231-1.071-.231-.175-.749-.091-1.029-.084-.343.014-.434.217-.504.518-.175.784-.21 1.547-.238 2.589-.014.49-.056.714-.245 1.379s-1.253 1.875-1.84 1.673c-.812-.28-.546-2.568-.392-4.143.126-1.246-.28-1.798-1.316-2.002-.609-.126-.98-.105-1.61-.308-.602-.189-.735-1.323-2.008-.945-.7.21-.252 1.686-.42 2.785-.826 5.395-2.54 5.542-3.338 2.925 3.583-8.79 1.029-12.254-.462-12.254-1.554 0-3.331 1.071-2.582 7.929-.364-.105-.476-.161-.882-.161-2.26-.007-3.807 1.826-3.807 4.087s1.547 4.094 3.814 4.094c1.337 0 2.274-.609 2.988-1.547.462.665 1.029 1.561 2.064 1.519 3.079-.119 3.975-6.438 4.08-6.795.329.049.644.147.945.196.504.077.546.28.532.784-.133 4.297.658 5.802 2.457 5.802 1.001 0 1.896-.987 2.512-1.687.462.952 1.19 1.659 2.177 1.687 2.379.056 3.296-3.737 3.212-3.24-.063.392.77 3.212 3.226 3.226 3.037.014 3.604-3.324 3.667-3.884.007-.112.014-.098 0 0v.035c.966-.182 1.463-.693 1.463-.693s.777 4.598 3.639 4.549c2.974-.056 3.541-3.072 3.611-3.66.007-.14.014-.126 0 0v.014c1.148-.42 1.449-.833 1.449-.833s.616 4.507 3.639 4.549c2.694.035 3.695-2.729 3.702-3.884.455.007 1.295-.273 1.274-.287 0 0 .987 3.94 3.744 4.143 1.295.098 2.267-.728 2.82-1.106 1.302 1.057 5.634 2.4 8.37-2.239.392-.658-.441-1.449-.588-1.547zM4.02 47.446c-1.323 0-2.17-1.225-2.17-2.54s.777-2.541 2.1-2.541c.595 0 .924.063 1.393.469.084.329.322 1.092.441 1.442.154.462.343.861.525 1.288-.273 1.106-1.141 1.883-2.288 1.883zm3.219-4.577c-.056-.091-.042-.035-.105-.119-.238-.658-.707-2.128-.763-3.8-.063-1.89.252-4.108 1.183-4.108.63 0 1.302 4.493-.315 8.027zm18.622-1.967c-.147-1.12-.154-6.123 1.043-5.983.665.266-.42 4.983-1.043 5.983zm8.769 0c-.147-1.12-.154-6.123 1.043-5.983.665.266-.42 4.983-1.043 5.983zm8.699.07c-.147-1.12-.154-6.123 1.043-5.983.665.259-.42 4.983-1.043 5.983zm9.602-6.354c1.099-.112 1.05 4.682-1.148 7.705-.287-1.092-.721-7.327 1.148-7.705zm4.619 10.322c-.35-1.785.56-2.953 1.498-3.079.329-.049.805.161.896.56.154.749-.021 1.861-2.127 3.268.007.007-.189-.357-.266-.749zM20.326 39.44a1.36 1.36 0 0 0 1.358-1.358 1.36 1.36 0 0 0-1.358-1.358 1.36 1.36 0 0 0-1.358 1.358 1.36 1.36 0 0 0 1.358 1.358z" fill="#fff"/></g><defs><clipPath id="A"><path fill="#fff" transform="translate(20.618)" d="M0 0h25v25H0z"/></clipPath><clipPath id="B"><path fill="#fff" transform="translate(.318 33)" d="M0 0h65.6v16H0z"/></clipPath></defs></svg>
